X:59
T:Up Sligo
T:Creel of Turf, The
T:Lark's March, The
T:Green Meadow, The
R:jig
D:Molloy, Peoples, Brady
Z:id:hn-jig-59
M:6/8
K:Edor
EBB BAG | FDF AGF | EBB GBd | AGF EFD |
EBB BAG | FDF ABc | dcd B/c/dB | AGF ~E3 :|
|: Bee ede | ~f3 dBA | Bee ede | fec d2A |
Bee ede | fef dBA | BdB GBd | AGF ~E3 :|
P:Variations:
EBB BAG | FAd AFD | EBB EBB | AGF EFD |
EBB BAG | FAd ABc | ded BGB | AGF ~E3 |
EBB BAG | ~F3 AFD | EBB Bcd | AGF E2D |
EBB BAG | ~F3 ABc | ~d3 BGB | AGF ~E3 ||
|: Bee efg | fef dBA | Bee Bee | fdc d2A |
~B3 efg | fef dBA | B/c/dB GBd | AGF ~E3 :|
<end>
<start>
